!!!OTL: Auf dieser Welt hab ich kein' Freud (2-5), S. 10
!!!id: K1099
**kern
*clefG2
*k[f#]
*G:
{8g
8f#
8e
=1
4d
8e
8e
8d
16d
16c
=2
4B}
8r
=3
{8d
8g
8a
=4
4b
8b
8b
8a
8a
=5
4g}
8r
=6
{8g
8f#
8g
=7
8.a
16b
8a
16d
16d
8g
8a
=8
8.b
16cc
8b}
=9
{8g
8g
8b
=10
4dd
8dd
8dd
8cc
8cc
=11
4b}
8r
=12
{8g
8f#
8g
=13
8.a
16b
8a
16d
16d
8g
8a
=14
8.b
16cc
8b}
=15
{8g
8g
8b
=16
4dd
8dd
8dd
8cc
8cc
=17
4b}
8r
==
*-
!!!minrhy: 16
!!!meters: 3/4 ]  ZZ[6
!!!cut: Auf dieser Welt hab ich kein' Freud (2-5), S. 10
!!!reg: Luxemburg
!!!trd: KINTZELE, Guillaume: An der Ucht, Bd. 2, Luxemburg 1927
!!!rhy1: X_X_X_  X__X_X_X_XX  X__0_
!!!rhy2: X_X_X_  X__X_X_X_X_  X__0_
!!!key: K1099  16  G 3/4 ]  ZZ[6
!!!mod: HEPTATONIK IONISCH]  AMBITUS[10b
!!!kad: -313333
!!!akz: -5-3_31_23_53_23_53_
!!!fot: 'a__b__bs"bs"bs"bs"
!!!for: 'a__b__c__b__c__b__
!!!fok: '\__^a_~a_^a_~a_^a_
!! PHRAS[AUFTAKTIG]
!!!fkt: Sehnsucht, Trennung
!!!bem: in der Quelle mit einer 2. Stimme versehen
!! KINTZELE
!! PR[20] 2K[11] 2G[18] 3K[5] 3G[0] 4A[3] 4Ü[0] 5A[2] 6K[0] 6G[2]
!! 7K[3] 7G[0] 8A[0] MEHR[0] SI[44] ABS[123] SR[29] SP[15]
!! ST[24] 2k[10] 2g[15] 3k[2] 3g[2] 4d[1] 4ü[0] 5d[0] 6k[3] 6g[0]
!! 7k[3] 7g[0] 8d[2] mehr[0] si[37] dm[+7] sr[24] sp[12]
!! 1F[79] 2F[6] 3F[6] 4F[0] LF[0] 2P[9] 3P[0] 4P[0] TRI[0] DF[4] AB[136]
!! TF[0] U3K[0] U3[0] U4[0] U4Ü[0] U5[8] U6K[0] U6[5] U7K[0] U7[3]
!! N1[8] N2K[0] N2[23] N3K[0] N3[23] N4[18] N4Ü[2] N5[10] N6K[0] N6[2]
!!!n7k: 0] N7[0] O1[0] O2K[0] O2[0] O3K[0] O3[0] HÖ[0
